X: 6659
T: Ceilier, The
R: reel
M: 4/4
K: Gmajor
Bc|:dGBd c=FAc|BGBd gfdc|Bcde =fdeg|fdBd c=FAc|
BGGF GABc|dGBd c2 Bc|dgfa gbag|1 fdcA GABc:|2 fdcA G2 Bc||
dggf g2 gf|dgBg dcBc|de=fe f2 fe|d=fcf dcBc|
dggf gfga|bgaf gfde|=f2 fe fdeg|1 fdcA GABc:|2 fdcA G4||

